!!!OTL: "Der Gemsjaeger" DURT OBN AUF DER ALMA
!!!ARE: Europa, Mitteleuropa, Oberoesterreich
!!!SCT: Z1296
!!!YEM: Copyright 1995, estate of Helmut Schaffrath.
**kern
*ICvox
*Ivox
*M3/4
*k[f#]
*G:
{4d
=1
4b
4.b
8cc
=2
8cc
8dd
4.dd}
{8b
=3
8dd
8cc
8cc
8b
8cc
8ee
=4
2dd
8r}
{8g
=5
4b
4.b
8cc
=6
8ee
8dd
4.dd}
{8b
=7
8dd
8cc
8cc
8b
8cc
8a
=8
2g}
{4g
=9
4a
4.cc
8a
=10
4b
4.dd}
{8b
=11
8dd
8cc
8cc
8b
8cc
8ee
=12
4.dd
8r}
{4d
=13
4b
4.b
8cc
=14
8ee
8dd
4.dd}
{8b
=15
8dd
8cc
8cc
8b
8cc
8a
=16
2g}
{4gg
=17
2dd
4b
=18
8dd
8cc
8cc
8b
8cc
8a
=19
2g}
==
!!!AGN: Jaeger - Lied
!!!ONB: ESAC (Essen Associative Code) Database: ZUCCAL
!!!AMT: simple triple
!!!AIN: vox
!!!EED: Helmut Schaffrath
!!!EEV: 1.0
*-
